X:774
%%etbk:tnset id:511,pos:1,rep:3x,ant:
%%etbk:wsite https://thesession.org/tunes/14109
%%etbk:video src:ytube,cde:hur5jYWD9B4,desc:
%%etbk:color #e6ffe6
%%etbk:pldat 2016-08-18T18:06,2016-08-17T15:22,2016-08-16T15:21,2016-08-15T18:33,2016-08-12T16:24,2016-08-11T18:03,2016-08-10T15:17,2016-08-09T16:06,2016-08-08T18:03,2016-08-06T10:48,2016-08-03T15:45,2016-08-02T15:50,2016-06-09T18:30,2016-06-08T15:52,2016-06-07T15:50,2016-06-06T18:04,2016-06-04T14:53,2016-06-04T14:47,2016-06-02T18:09,2016-06-01T18:20,2016-05-31T16:34,2016-05-30T17:55,2016-05-29T11:24,2016-05-26T18:34,2016-05-25T16:40,2016-05-24T15:50,2016-05-18T17:31,2016-05-17T17:18,2016-05-16T15:40,2016-05-15T15:00,2016-05-14T17:14,2016-05-13T15:54,2016-05-12T18:43,2016-05-11T15:51,2016-05-10T19:28,2016-05-09T19:20,2016-05-03T18:09,2016-04-30T17:31,2016-04-28T18:10,2016-04-23T16:24,2016-04-20T10:34,2016-04-18T18:16,2016-04-17T15:48
T: L'Air Mignonne
H: Created 2016-04-17 /  Last Modified 2016-05-25
R: barndance
M: 4/4
L: 1/8
K: Amaj
!1!E !3!A !4!B ||: !2!{B}!3!c>-c/-c e c B A B | !2!{B}!3!c>-c/-c e c B A !5!B| 
!2!F>-F/-F AE>-E/-E !5!c |1 B A G A | !4!B E A B :|2 !4!B A G !4!B | !1!A !1!A c !3!e ||
|: !3!{e}!4!f>-f/-f !5!a f e !2!c !3!e | !3!{e}!4!f>-f/-f a f e !2!c !1!A | 
!2!F>-F/-F AE>-E/-E !5!c |1 !4!B A G A | !4!B !1!A !2!c !3!e :|2 B A G B | A4 |]


